X:1
T:Title
%%score ( 1 2 3 )
L:1/8
Q:1/4=120
M:4/4
K:G
V:1 treble nm="Part_1"
V:2 treble 
V:3 treble 
V:1
!>(! b!>(! !tenuto!G,2!>)! G>F F4 | B,2 F>E E4 | A,2 E>D D3 C | C>B, C>D (3G,G,G, (3G,G,G, | %4
 G,2 B>A A4 | E2 A>G G4 | C2 F>E E3 D | D>C B,>D (3A,A,A, (3A,A,A, | A,2 c>B B4 | E2 B>A A4 | %10
 D2 A>G G3 =F | =F>E ^F>G (3DDD (3DDD | G,2 G>F F>A !wedge!F2 | B,2 F>E E>G !wedge!E2 | %14
 A,2 E>D D>F D2 | C>B, C>D (3G,G,G, (3G,G,G, | G,2 B>A A>c z/4 x7/4 | E2 A>G G>B !wedge!G2 | %18
 C2 F>E E>G E2 | D>C B,>D!>(! (3A,A,A, (3A,A,!>)!A, | A,2 c>B B>d B2 | E2 B>A A>c !wedge!A2 | %22
 D2 A>G G>B !wedge!G2 | =F>E ^F>G (3DDD (3DDD | (3DDD (3DDD G,4 |[M:2/4] B,2 C2 | D>E DC | %27
 B,F- F2- | F4 | B,2 C2 | D>E DC | B,E- E2- | E4 | B,2 C2 | D>E DC | B,_E- E2- | E4 | %37
[M:4/4] DE (3F/_E/D/(3E/D/C/ D4 | CD (3_E/D/C/(3D/C/B,/ C4 | B,!p!.C (3D/C/B,/(3C/B,/A,/ B,4 | %40
 A,B, (3C/B,/A,/(3B,/A,/G,/ A,4 | B,2 C2 D7/2 E/ |[M:2/2] DCB,A, G,4 |[M:2/4] GGG (3GGG | %44
 (3GGG (3GGG | G,2 G>F | F4 | B,2 F>E |[K:treble] E4 | A,2 E>D | D4 | C>B, C>D | %52
 (3G,G,G, (3G,G,G, | G,2 B>A | A4 | E2 A>G | G4 | C2 F>E | E4 | D>C B,>D | (3A,A,A, (3A,A,A, | %61
 A,2 c>B | B4 | E2 B>A | A4 | D2 A>G | G3 =F | =F>E ^F>G | (3DDD (3DDD | G,2 G>F | F4 | B,2 F>E | %72
 E4 | A,2 E>D | D4 | C>B, C>D | (3G,A,B, (3CDE | (3FGA B>A | A4 | E2 A>G | G4 | C2 F>E | E4 | %83
 D>C B,>D | (3A,B,C (3DEF | (3GAB c>B | B4 | E2 B>A |[K:treble] A4 | D2 A>G | G3 =F | =F>E ^F>G | %92
 (3DDD (3DDD | (3DDD C>D | (3B,B,B, (3B,B,B, | (3B,B,B, F>G | (3DDD (3DDD | (3DDD C>D | B,2 G,2- | %99
 G,4 | G>A GF E F G D>E DC B,C D>E D2 C2 B,2 A,2 G,4 | %101
 EF G2 GF A2 G G2 A2 AG GF G2 G F F2 E E D2 C2 B,2 D2 G,2 | %102
 EF G2 GF A2 G G2 B2 GFF E F2 G FE E2 D B,2 C2 D>E D C B,2 D2 G,2 |[M:2/4] z2 B,C | D2 D2 | D2 DD | %106
 D2 DD | E2 DD | =F2 D2 | E2 D2 | E2 F2 | G2 z2 | z2 EF | G2 G2 | G2 GG | G2 GG | A2 GG | _B2 GG | %118
 A2 G2 | A2 B2 | c2 z2 | z2 B,C | DB,DB, |[K:treble] D2 DD | D2 DD | E2 DD | =F2 DD | E2 D2 | %128
 (3EEE (3FFF | G2 z2 | z2 EF | GDGD | G2 GG | G2 GG | A2 GG | _B2 GG | A2 G2 | A2 B2 | c2 z2 || %139
[K:Bb][M:4/4] G2 cc =BA B2 BAG^F A2 GF =EDC=B, A, D3 EDCB, A, G,2 a4 ||[M:4/4] z2 z2 z =B,^C D4 |: %141
 z2 DE z x3 | z D E^F G4 | z2 GA B2 G2 || A2 ^F2 G2 E2 | ^F2 D2 E^CDE | ^CDEC DEDC | z3 x D4 :| %148
 =B,2 B,^C D2 DD |: E2 DE DD E2 | D2 G^F FEED | D3 C!>)!!>(! C4 | =B,2 B,B, D2 CC | .E2 DD ^F2 DD | %154
 G2 DD A2 DB | A2 G2 ^F2 E2 | D2 =B,^C D2 DD :| D2 z D B2 BB | ^F2 FF A2 AA | E2 EE ^F2 FF | %160
 G6 E^F | G2 GG A2 ^FF | GGEE ^FFDD | EE^CC D2 C2 | %164
[K:treble] D2 E2 DED^C =B,2 ^FG A/=B/A/G/ A/B/A/G/ | A2 ^FG A2 AA |: A2 AA AABA | G2 GG A2 B2 | %168
 c3 B B3 A | A3 G G3 ^F | E2 E^F G2 GG | G2 GG G^FGF | E2 EE ^F2 G2 | A3 G G3 ^F | ^F3 E E3 D | %175
 z3 x A2 AA :| .D2 D2 d2 dc |: c2 cB B2 BA | A2 A G3 (3cBA | G2 (3CB,A, G,2 G2 G2 | c2 cB B2 BA | %181
 A2 BA G2 AG | G^FFE FG [GB]2 (3GFE | z3 d2 x3 :| .D2 DD A2 AG | G2 G^F F2 GF | E2 G^F EDD^C | %187
 E/D/.^C x3/2 =B,2 x5/2 || x8 | x8 |[K:G] x8 || A,4 C4 | B,8 | G,4 C2 C2 | B,8 | x8 | %196
 G.A_Bc B4 G GABc B4 GAB c B2 A2 G2 ^F>E F2 | DEFG F4 DEFG F>E F4 DE FG F2 E2 D2 C2 B,4 | %198
[M:2/4][K:treble] B,CDE z EDC B,4 B, CDE F4 E DC B,4 ^A,4 C4 B,4 |[M:2/4] z/ x7/2 |: GA_Bc | %201
 _B2 z2 | GA_Bc | _B2 z2 | GA_Bc | _B2 A2 | G2 ^F>^E | ^F2 z2 | DE^FG | F2 z2 | DE^FG | ^F2 z2 | %212
 DE^FG | ^F2 E2 | D2 C2 | B,2 z2 :|[M:4/4] B,CDE =F4- | FEDC B,2 z2 | B,Cz.DE (z x2 | %219
 F)EDC B,2 z2 | B,CDE FE =F2- | FEDC B,2 ^A,2 | B,2 D2 D2 DD |: E2 D2 E2 DD | E2 z2 DEDE | %225
 F4 G2 z G | AGGF =FEFE | D2 =FE D2 DC | B,2 DD DDDD | E2 DD E2 DD | E2 z2 x4 | .F4 G2 G2 | %232
 A2 G=F FEFE | D2 =FE D2!>(! D!>)!C | B,2 D2 D2 DD :| B,2 B6 | z2 B2 B2 BB | B2 B2 B2 B2 | %238
[K:treble] B8 | z2 B2 B2 B2 | G2 G2 D2 D2 | B,2 B,2 G,2 z2 | z2 D2 D2 D2 | D2 z2 z2 z2 z2 | %244
 z2 D2 D2 D2 | D2 z2 z2 D2 | D2 z2 z2 D2 | D2 D2 G2 G/F/ x |: F2 D2 =F2 F2 | E2 C2 _E2 E/D/ x | %250
 D2 G F2 G E/>=F/ x | D2 D2 G2 G/F/ x | F2 D2 (3=FFF (3FFF | E2 C2 _E2 E/D/ x | %254
 D2 G F2 G E/>=F/ x | z3 G2 x3 :: .G2 B2 B2 G2 | A4 A/G/ z2 x | z2 G/F/ G4 x | D6 D2 | G4 A4 | %261
 B2 z2 z2 G2 | c c2 z A4 | B4 B/A/ G2 x | A8 | A/G/F/G/ F2 F2 x2 | G2 A/B/ A2 G2 x | G2 z2 G4 :| %268
 D2 G2 G2 F2 | A4 F2 z2 | z2 F2 G3 F | E2 z2 z2 E2 | E4 D3 E | F6 F/F/ x | F4 F4 | F4 F2 F2 | %276
 G3 F E2 F2 | G6 G2 |[K:treble] A G4 G2 A2 GGF GA/B/ AG G3 F EFGF G4 DEFE F4 | %279
S CDED E4 B,CDC D4 A,B,CB, C3 B, A, G,2 | G4!>)! A4"^Adel Samuel" B4 x7 |] %281
V:2
 x9 | x8 | x8 | x8 | x8 | x8 | x8 | x8 | x8 | x8 | x8 | x8 | x8 | x8 | x8 | x8 | x8 | x8 | x8 | %19
 x8 | x8 | x8 | x8 | x8 | x8 |[M:2/4] x4 | x4 | x4 | x4 | x4 | x4 | x4 | x4 | x4 | x4 | x4 | x4 | %37
[M:4/4] x8 | x8 | x8 | x8 | x8 |[M:2/2] x8 |[M:2/4] x5 | x4 | x4 | x4 | x4 |[K:treble] x4 | x4 | %50
 x4 | x4 | x4 | x4 | x4 | x4 | x4 | x4 | x4 | x4 | x4 | x4 | x4 | x4 | x4 | x4 | x4 | x4 | x4 | %69
 x4 | x4 | x4 | x4 | x4 | x4 | x4 | x4 | x4 | x4 | x4 | x4 | x4 | x4 | x4 | x4 | x4 | x4 | x4 | %88
[K:treble] x4 | x4 | x4 | x4 | x4 | x4 | x4 | x4 | x4 | x4 | x4 | x4 | x27 | x35 | x39 | %103
[M:2/4] x4 | x4 | x4 | x4 | x4 | x4 | x4 | x4 | x4 | x4 | x4 | x4 | x4 | x4 | x4 | x4 | x4 | x4 | %121
 x4 | x4 |[K:treble] x4 | x4 | x4 | x4 | x4 | x4 | x4 | x4 | x4 | x4 | x4 | x4 | x4 | x4 | x4 | %138
 x4 ||[K:Bb][M:4/4] x35 ||[M:4/4] x11 |: x8 | x8 | x8 || x8 | x8 | x8 | =B,2 B,^C x4 :| x8 |: x8 | %150
 x8 | x8 | z3 x5 | x8 | x8 | x8 | x8 :| x8 | x8 | x8 | x8 | x8 | x8 | x8 |[K:treble] x16 | x8 |: %166
 x8 | x8 | x8 | x8 | x8 | x8 | x8 | x8 | x8 | D2 FG x4 :| x8 |: x8 | x8 | x10 | x8 | x8 | x10 | %183
 D2 D2 d.c x2 :| x8 | x8 | x8 | A,,4 z2 x2 || x8 | x8 |[K:G] x8 || x8 | x8 | x8 | x8 | x8 | x31 | %197
 x34 |[M:2/4][K:treble] x39 |[M:2/4] x4 |: x4 | x4 | x4 | x4 | x4 | x4 | x4 | x4 | x4 | x4 | x4 | %211
 x4 | x4 | x4 | x4 | x4 :|[M:4/4] x8 | x8 | x8 | x8 | x8 | x8 | x8 |: x8 | x8 | x8 | x8 | x8 | x8 | %229
 x8 | z3 DEDE x | x8 | x8 | x8 | x8 :| x8 | x8 | x8 |[K:treble] x8 | x8 | x8 | x8 | x8 | x10 | x8 | %245
 x8 | x8 | x8 |: x8 | x8 | x8 | x8 | x8 | x8 | x8 | D2 D2 G/F/ x3 :: x8 | x8 | x8 | x8 | x8 | x8 | %262
 x8 | x8 | x8 | x8 | x8 | x8 :| x8 | x8 | x8 | x8 | x8 | x8 | x8 | x8 | x8 | x8 |[K:treble] x36 | %279
 F,4 x23 | x19 |] %281
V:3
 x9 | x8 | x8 | x8 | x8 | x8 | x8 | x8 | x8 | x8 | x8 | x8 | x8 | x8 | x8 | x8 | x8 | x8 | x8 | %19
 x8 | x8 | x8 | x8 | x8 | x8 |[M:2/4] x4 | x4 | x4 | x4 | x4 | x4 | x4 | x4 | x4 | x4 | x4 | x4 | %37
[M:4/4] x8 | x8 | x8 | x8 | x8 |[M:2/2] x8 |[M:2/4] x5 | x4 | x4 | x4 | x4 |[K:treble] x4 | x4 | %50
 x4 | x4 | x4 | x4 | x4 | x4 | x4 | x4 | x4 | x4 | x4 | x4 | x4 | x4 | x4 | x4 | x4 | x4 | x4 | %69
 x4 | x4 | x4 | x4 | x4 | x4 | x4 | x4 | x4 | x4 | x4 | x4 | x4 | x4 | x4 | x4 | x4 | x4 | x4 | %88
[K:treble] x4 | x4 | x4 | x4 | x4 | x4 | x4 | x4 | x4 | x4 | x4 | x4 | x27 | x35 | x39 | %103
[M:2/4] x4 | x4 | x4 | x4 | x4 | x4 | x4 | x4 | x4 | x4 | x4 | x4 | x4 | x4 | x4 | x4 | x4 | x4 | %121
 x4 | x4 |[K:treble] x4 | x4 | x4 | x4 | x4 | x4 | x4 | x4 | x4 | x4 | x4 | x4 | x4 | x4 | x4 | %138
 x4 ||[K:Bb][M:4/4] x35 ||[M:4/4] x11 |: x8 | x8 | x8 || x8 | x8 | x8 | x8 :| x8 |: x8 | x8 | x8 | %152
 x8 | x8 | x8 | x8 | x8 :| x8 | x8 | x8 | x8 | x8 | x8 | x8 |[K:treble] x16 | x8 |: x8 | x8 | x8 | %169
 x8 | x8 | x8 | x8 | x8 | x8 | x8 :| x8 |: x8 | x8 | x10 | x8 | x8 | x10 | x8 :| x8 | x8 | x8 | %187
 x/ z .E/D/^C x9/2 || x8 | x8 |[K:G] x8 || x8 | x8 | x8 | x8 | x8 | x31 | x34 | %198
[M:2/4][K:treble] x39 |[M:2/4] x4 |: x4 | x4 | x4 | x4 | x4 | x4 | x4 | x4 | x4 | x4 | x4 | x4 | %212
 x4 | x4 | x4 | x4 :|[M:4/4] x8 | x8 | x8 | x8 | x8 | x8 | x8 |: x8 | x8 | x8 | x8 | x8 | x8 | x8 | %230
 x8 | x8 | x8 | x8 | x8 :| x8 | x8 | x8 |[K:treble] x8 | x8 | x8 | x8 | x8 | x10 | x8 | x8 | x8 | %247
 x8 |: x8 | x8 | x8 | x8 | x8 | x8 | x8 | x8 :: x8 | x8 | x8 | x8 | x8 | x8 | x8 | x8 | x8 | x8 | %266
 x8 | x8 :| x8 | x8 | x8 | x8 | x8 | x8 | x8 | x8 | x8 | x8 |[K:treble] x36 | x27 | x19 |] %281

